packages/ffe-icons/icons/filled/lg/team_dashboard.svg

<svg xmlns="http://www.w3.org/2000/svg" height="40" viewBox="0 -960 960 960" width="40"><path d="M202.565-140.001q-25.609 0-44.086-18.478-18.478-18.477-18.478-44.086v-262.308h274.872v324.872H202.565Zm262.562 0v-324.872h354.872v262.308q0 25.609-18.478 44.086-18.477 18.478-44.086 18.478H465.127ZM140.001-515.127v-242.308q0-25.609 18.478-44.086 18.477-18.478 44.086-18.478h554.87q25.609 0 44.086 18.478 18.478 18.477 18.478 44.086v242.308H140.001Z"/></svg>

<svg xmlns="http://www.w3.org/2000/svg" viewBox="0 -960 960 960" width="32" height="32"><path d="M202.57-140q-25.61 0-44.09-18.48Q140-176.96 140-202.57v-262.3h274.87V-140h-212.3Zm262.56 0v-324.87H820v262.3q0 25.61-18.48 44.09Q783.04-140 757.43-140h-292.3ZM140-515.13v-242.3q0-25.61 18.48-44.09Q176.96-820 202.57-820h554.86q25.61 0 44.09 18.48Q820-783.04 820-757.43v242.3H140Z"/></svg>
